assets/images/japan/icon-japan.svg

<svg width="100" height="100" viewBox="0 0 100 100" fill="none" xmlns="http://www.w3.org/2000/svg">
<path fill-rule="evenodd" clip-rule="evenodd" d="M11 94.4614C11 97.5203 13.4797 100 16.5386 100L16.5488 99.9898C19.6077 99.9898 22.0874 97.5102 22.0874 94.4512V61.4939L23.1646 61.8598C26.5386 63.0183 30.0447 63.5772 33.8659 63.5772C40.9492 63.5772 48.063 61.626 54.9329 59.7358L55.0346 59.7053C62.0874 57.7642 68.7541 55.935 75.4512 55.935C80.0041 55.935 84.1199 56.7988 88.002 58.5671C88.1748 58.6484 88.3577 58.689 88.5508 58.689C88.7947 58.689 89.0386 58.6179 89.2622 58.4756C89.6281 58.2419 89.8516 57.8354 89.8516 57.3882V6.56504C89.8516 6.05691 89.5467 5.57927 89.0996 5.37602C84.8618 3.45528 80.4004 2.52033 75.4614 2.52033C68.3069 2.52033 61.1829 4.49187 54.2927 6.40244L54.244 6.41578C47.2193 8.34175 40.578 10.1626 33.8862 10.1626C29.8008 10.1626 26.1118 9.48171 22.5854 8.06911L22.0772 7.86585V5.53862C22.0772 2.47967 19.5976 0 16.5386 0C13.4797 0 11 2.47967 11 5.53862V94.4614ZM13.6118 5.53862C13.6118 3.92276 14.9228 2.61179 16.5386 2.61179C18.1545 2.61179 19.4654 3.92276 19.4654 5.53862V94.4614C19.4654 96.0772 18.1545 97.3882 16.5386 97.3882C14.9228 97.3882 13.6118 96.0772 13.6118 94.4614V5.53862ZM22.5854 58.8821L22.0772 58.6789H22.0874V10.7114L23.1646 11.0772C26.5285 12.2154 30.0244 12.7744 33.8455 12.7744C40.9513 12.7744 48.0774 10.8129 55.0017 8.9069L55.0549 8.89228L55.0717 8.88765C62.1082 6.95846 68.7696 5.13211 75.4512 5.13211C79.5264 5.13211 83.2053 5.81301 86.7215 7.21545L87.2297 7.4187V55.4167L86.1524 55.0508C82.7785 53.9024 79.2724 53.3435 75.4309 53.3435C68.2764 53.3435 61.1728 55.2947 54.252 57.2053L54.1731 57.2269C47.1495 59.1498 40.5177 60.9654 33.8557 60.9654C29.7805 60.9654 26.1016 60.2845 22.5854 58.8821ZM40.6442 33.0691C40.6442 40.7927 46.9247 47.0732 54.6483 47.0732C62.3719 47.0732 68.6524 40.7927 68.6524 33.0691C68.6524 25.3455 62.3719 19.0651 54.6483 19.0651C46.9247 19.0651 40.6442 25.3455 40.6442 33.0691ZM43.2459 33.0691C43.2459 26.7785 48.3678 21.6667 54.6483 21.6667C60.9389 21.6667 66.0507 26.7785 66.0507 33.0691C66.0507 39.3598 60.9389 44.4715 54.6483 44.4715C48.3576 44.4715 43.2459 39.3598 43.2459 33.0691Z" fill="url(#paint0_linear_2321_1933)"/>
<defs>
<linearGradient id="paint0_linear_2321_1933" x1="12.947" y1="-6.42929" x2="96.9696" y2="72.5247" gradientUnits="userSpaceOnUse">
<stop stop-color="#E6007A"/>
<stop offset="0.21" stop-color="#703AC2"/>
<stop offset="0.46" stop-color="#0070EB"/>
<stop offset="0.77" stop-color="#0297FB"/>
<stop offset="1" stop-color="#0AE2FF"/>
</linearGradient>
</defs>
</svg>

<svg xmlns="http://www.w3.org/2000/svg" width="100" height="100" fill="none"><path fill="url(#a)" fill-rule="evenodd" d="M11 94.461A5.539 5.539 0 0 0 16.539 100l.01-.01a5.539 5.539 0 0 0 5.538-5.539V61.494l1.078.366c3.374 1.158 6.88 1.717 10.7 1.717 7.084 0 14.198-1.951 21.068-3.841l.102-.03c7.052-1.942 13.72-3.771 20.416-3.771 4.553 0 8.669.864 12.551 2.632.173.081.356.122.549.122.244 0 .488-.071.711-.213.366-.234.59-.64.59-1.088V6.565c0-.508-.305-.986-.752-1.189-4.238-1.92-8.7-2.856-13.639-2.856-7.154 0-14.278 1.972-21.168 3.882l-.049.014c-7.025 1.926-13.666 3.747-20.358 3.747-4.085 0-7.774-.681-11.3-2.094l-.509-.203V5.539a5.539 5.539 0 1 0-11.077 0V94.46ZM13.612 5.54a2.928 2.928 0 0 1 5.853 0V94.46a2.928 2.928 0 0 1-5.853 0V5.54Zm8.973 53.343-.508-.203h.01V10.71l1.078.366c3.364 1.138 6.86 1.697 10.68 1.697 7.106 0 14.232-1.961 21.157-3.867l.053-.015.017-.004c7.036-1.93 13.698-3.756 20.38-3.756 4.074 0 7.753.681 11.27 2.083l.508.204v47.998l-1.078-.366c-3.374-1.149-6.88-1.708-10.721-1.708-7.155 0-14.258 1.952-21.179 3.862l-.079.022c-7.023 1.923-13.655 3.738-20.317 3.738-4.076 0-7.754-.68-11.27-2.083Zm18.06-25.813c0 7.724 6.28 14.004 14.003 14.004 7.724 0 14.004-6.28 14.004-14.004 0-7.724-6.28-14.004-14.004-14.004-7.723 0-14.004 6.28-14.004 14.004Zm2.6 0c0-6.29 5.123-11.402 11.403-11.402 6.29 0 11.403 5.111 11.403 11.402 0 6.29-5.112 11.402-11.403 11.402-6.29 0-11.402-5.111-11.402-11.402Z" clip-rule="evenodd"/><defs><linearGradient id="a" x1="12.947" x2="96.97" y1="-6.429" y2="72.525" gradientUnits="userSpaceOnUse"><stop stop-color="#E6007A"/><stop offset=".21" stop-color="#703AC2"/><stop offset=".46" stop-color="#0070EB"/><stop offset=".77" stop-color="#0297FB"/><stop offset="1" stop-color="#0AE2FF"/></linearGradient></defs></svg>
